icons/bag-cross.svg

<svg xmlns="http://www.w3.org/2000/svg" width="24" height="24" viewBox="0 0 24 24">
  <path d="M14,2 C15.5976809,2 16.9036609,3.24891996 16.9949073,4.82372721 L17,5 L17,6 L20,6 C21.1045695,6 22,6.8954305 22,8 L22,20 C22,21.1045695 21.1045695,22 20,22 L4,22 C2.8954305,22 2,21.1045695 2,20 L2,8 C2,6.8954305 2.8954305,6 4,6 L7,6 L7,5 C7,3.40231912 8.24891996,2.09633912 9.82372721,2.00509269 L10,2 L14,2 Z M10.6128994,11.2097046 C10.2206082,10.9046797 9.65337718,10.9324093 9.29289322,11.2928932 C8.90236893,11.6834175 8.90236893,12.3165825 9.29289322,12.7071068 L9.29289322,12.7071068 L10.585,14 L9.29289322,15.2928932 L9.20970461,15.3871006 C8.90467972,15.7793918 8.93240926,16.3466228 9.29289322,16.7071068 C9.68341751,17.0976311 10.3165825,17.0976311 10.7071068,16.7071068 L10.7071068,16.7071068 L12,15.415 L13.2928932,16.7071068 L13.3871006,16.7902954 C13.7793918,17.0953203 14.3466228,17.0675907 14.7071068,16.7071068 C15.0976311,16.3165825 15.0976311,15.6834175 14.7071068,15.2928932 L14.7071068,15.2928932 L13.415,14 L14.7071068,12.7071068 L14.7902954,12.6128994 C15.0953203,12.2206082 15.0675907,11.6533772 14.7071068,11.2928932 C14.3165825,10.9023689 13.6834175,10.9023689 13.2928932,11.2928932 L13.2928932,11.2928932 L12,12.585 L10.7071068,11.2928932 Z M14,4 L10,4 C9.48716416,4 9.06449284,4.38604019 9.00672773,4.88337887 L9,5 L9,6 L15,6 L15,5 C15,4.48716416 14.6139598,4.06449284 14.1166211,4.00672773 L14,4 Z"/>
</svg>

<svg xmlns="http://www.w3.org/2000/svg" viewBox="0 0 24 24">
  <path d="M14 2a3 3 0 0 1 3 2.82V6h3a2 2 0 0 1 2 2v12a2 2 0 0 1-2 2H4a2 2 0 0 1-2-2V8c0-1.1.9-2 2-2h3V5a3 3 0 0 1 2.82-3H14zm-3.39 9.21a1 1 0 0 0-1.32 1.5L10.6 14l-1.3 1.3-.08.09a1 1 0 0 0 1.5 1.32L12 15.4l1.3 1.3.09.08a1 1 0 0 0 1.32-1.5L13.4 14l1.3-1.3.08-.09a1 1 0 0 0-1.5-1.32L12 12.6l-1.3-1.3zM14 4h-4a1 1 0 0 0-1 .88V6h6V5a1 1 0 0 0-.88-1H14z"/>
</svg>
